lib/brands/icons/edge-legacy.svg

<svg xmlns="http://www.w3.org/2000/svg" fill="none" aria-hidden="true" viewBox="0 0 48 48"><g id="edge-legacy-Icon"><path id="edge" fill="#137AD4" d="M17.2401 20.1181H31.4036C31.4036 15.0897 29.2095 11.6615 23.227 11.6615C16.157 11.6615 8.96731 16.264 5.54932 22.0028C6.60804 12.0419 13.7501 4 24.5025 4C33.7187 4 42.4505 11.0465 42.4505 22.7599V27.2133H17.3156C17.3156 33.2746 22.6032 35.6762 28.1411 35.6762C34.8804 35.6762 39.0539 32.6478 39.0539 32.6478V41.1381C39.0539 41.1381 34.3425 44 26.8328 44C17.0739 44 10.1853 37.0061 10.1853 28.3091C10.1853 21.4826 14.3145 16.0323 20.034 13.7833C17.2499 16.841 17.2401 20.1181 17.2401 20.1181H17.2401Z"/></g></svg>

<svg xmlns="http://www.w3.org/2000/svg" fill="none" aria-hidden="true" viewBox="0 0 48 48"><path fill="#137AD4" d="M17.24 20.118h14.164c0-5.028-2.195-8.456-8.177-8.456-7.07 0-14.26 4.602-17.678 10.34C6.608 12.043 13.75 4 24.503 4c9.216 0 17.947 7.046 17.947 18.76v4.453H17.316c0 6.062 5.287 8.463 10.825 8.463 6.74 0 10.913-3.028 10.913-3.028v8.49S34.342 44 26.833 44c-9.76 0-16.648-6.994-16.648-15.69 0-6.827 4.13-12.278 9.849-14.527-2.784 3.058-2.794 6.335-2.794 6.335Z"/></svg>
